nova/resources/svg/fluent/document-copy.svg

<svg width="24" height="24" viewBox="0 0 24 24" fill="none" xmlns="http://www.w3.org/2000/svg">
<path d="M5.5028 4.62704L5.5 6.75V17.2542C5.5 19.0491 6.95507 20.5042 8.75 20.5042L17.3663 20.5045C17.0573 21.3782 16.224 22.0042 15.2444 22.0042H8.75C6.12665 22.0042 4 19.8776 4 17.2542V6.75C4 5.76929 4.62745 4.93512 5.5028 4.62704ZM13.1284 2C13.7254 2 14.2979 2.23723 14.7199 2.65947L19.3383 7.28054C19.7599 7.70246 19.9968 8.27456 19.9968 8.87107V17.2542C19.9968 18.4969 18.9895 19.5042 17.7468 19.5042H8.75241C7.50977 19.5042 6.50241 18.4969 6.50241 17.2542V4.25C6.50241 3.00736 7.50977 2 8.75241 2H13.1284ZM12.9994 3.5H8.75241C8.33819 3.5 8.00241 3.83579 8.00241 4.25V17.2542C8.00241 17.6684 8.33819 18.0042 8.75241 18.0042H17.7468C18.161 18.0042 18.4968 17.6684 18.4968 17.2542L18.4964 9.003L15.25 9.00389C14.0591 9.00389 13.0844 8.07873 13.0052 6.90794L13 6.75389L12.9994 3.5ZM14.4994 4.561L14.5 6.75389C14.5 7.13359 14.7822 7.44738 15.1482 7.49704L15.25 7.50389L17.4404 7.503L14.4994 4.561Z" fill="currentColor"/>
</svg>

<svg viewBox="0 0 24 24" fill="none" xmlns="http://www.w3.org/2000/svg"><path d="M5.503 4.627L5.5 6.75v10.504a3.25 3.25 0 003.25 3.25h8.616a2.251 2.251 0 01-2.122 1.5H8.75A4.75 4.75 0 014 17.254V6.75c0-.98.627-1.815 1.503-2.123zM13.128 2c.597 0 1.17.237 1.592.66l4.618 4.62c.422.422.659.995.659 1.591v8.383a2.25 2.25 0 01-2.25 2.25H8.752a2.25 2.25 0 01-2.25-2.25V4.25A2.25 2.25 0 018.752 2h4.376zM13 3.5H8.752a.75.75 0 00-.75.75v13.004c0 .414.336.75.75.75h8.995a.75.75 0 00.75-.75V9.003H15.25a2.25 2.25 0 01-2.245-2.095L13 6.754V3.5zm1.5 1.061l.001 2.193c0 .38.282.693.648.743l.102.007 2.19-.001-2.94-2.942z" fill="currentColor"/></svg>
